X:65
T:Garech's Wedding
R:slip jig
C:Paddy Moloney
Z:id:hn-slipjig-65
M:9/8
L:1/8
K:Em
~E3 e2B G2B | ~A3 A2G A2B | ~E3 G2B e2f |1 gfe fed B2e :|2 gfe fed e2f ||
g2B BAB g2e | f2A AGA f2a |1 g2B BAB g2e | fdd add f/g/af :|
[2 gfe fed efg | BcB AGF E2B ||

